X:9
T:La Chassé
T:Kadrilj ur Vetlandasamlingen (M39-9)
R:Kadrilj
O:Vetlanda, Småland
B:Vetlandasamlingen
N:SMUS M39
N:ca 1850
Z:Till abc Jonas Brunskog
M:6/8
L:1/8
K:F
(c/A/)|FcA FcA|GcB GcB|Aff fef|gec BAG|FcA FcA|GcB GcB|
Aff ege|f3 fz:| |:f/g/|a3 f3|^fgg gzg/a/|b3 e3|gff fzf/g/|a3f3|
^fgg gzg/a/|b3 e3|gff f2:| |:A/B/|c3 cAB|c3 cAB|cff faa|agf edc|
B3 BGA|B3 BGA|Bdc BAG|GFF F2:|

